icons/cloudy-moon.svg

<svg width="24" height="24" viewBox="0 0 24 24" fill="none" xmlns="http://www.w3.org/2000/svg">
<g clip-path="url(#clip0)">
<path fill-rule="evenodd" clip-rule="evenodd" d="M18.3433 0.403819C18.5883 0.733673 18.6066 1.17981 18.3894 1.5286C18.0445 2.08263 17.9026 2.74189 17.9896 3.39151C18.0766 4.04107 18.3866 4.63796 18.8638 5.07903C19.3409 5.51995 19.955 5.77747 20.599 5.80856C21.2431 5.83965 21.8784 5.64248 22.3947 5.24987C22.716 5.0055 23.1528 4.97833 23.502 5.18097C23.8511 5.38362 24.0442 5.77634 23.9914 6.17659C23.8602 7.17184 23.4632 8.11326 22.842 8.90027C22.2208 9.68734 21.3984 10.2906 20.462 10.6448C20.4542 10.6478 20.4464 10.6507 20.4385 10.6536C21.2424 10.8673 21.9846 11.2857 22.5856 11.8779C23.4895 12.7684 24 13.9794 24 15.2453C24 16.5111 23.4895 17.7221 22.5856 18.6126C21.6823 19.5027 20.4602 20.0001 19.189 20.0001H6.12261C4.5173 20.0001 2.96668 19.3996 1.81454 18.3138C0.660383 17.2262 0 15.7378 0 14.1725C0 12.6071 0.660383 11.1188 1.81454 10.0311C2.78417 9.1173 4.03604 8.54729 5.36521 8.38962C5.87515 7.00475 6.8898 5.82825 8.22487 5.04234C9.0002 4.58593 9.86392 4.27243 10.7663 4.11576C11.5602 3.97791 12.3737 3.96325 13.1717 4.0717C13.4086 3.13811 13.8833 2.2813 14.5505 1.58662C15.2448 0.863636 16.1217 0.343364 17.088 0.0822399C17.1171 0.0743569 17.1465 0.067831 17.1761 0.0626506L17.2799 0.0346193C17.6765 -0.0724748 18.0984 0.0739644 18.3433 0.403819ZM15.9647 3.00178C15.5459 3.44805 15.2486 3.99681 15.1025 4.59472C15.424 4.72913 15.7352 4.88556 16.0331 5.06322C16.2399 5.18656 16.4394 5.31959 16.6308 5.46175C16.307 4.91206 16.0933 4.29893 16.0073 3.65696C15.9781 3.43877 15.964 3.21988 15.9647 3.00178ZM18.1743 7.06352C18.5703 7.64727 18.8624 8.28773 19.036 8.9616C19.2803 8.92502 19.5211 8.86243 19.7544 8.77418C20.2973 8.56881 20.7814 8.23129 21.1637 7.79197C20.945 7.81201 20.7241 7.81693 20.5026 7.80623C19.6703 7.76605 18.8687 7.5075 18.1743 7.06352ZM13.1449 6.09166C12.4733 5.97136 11.7808 5.96952 11.1084 6.08628C10.4359 6.20303 9.80103 6.43531 9.23946 6.76589C8.10447 7.43402 7.35179 8.45141 7.09763 9.56702C6.99395 10.0221 6.58931 10.3449 6.12261 10.3449C5.01072 10.3449 3.95543 10.7617 3.18622 11.4866C2.41902 12.2096 2 13.1771 2 14.1725C2 15.1678 2.41902 16.1353 3.18622 16.8583C3.95543 17.5832 5.01072 18.0001 6.12261 18.0001H19.189C19.9393 18.0001 20.6559 17.7063 21.1819 17.188C21.7075 16.6702 22 15.971 22 15.2453C22 14.5195 21.7075 13.8204 21.1819 13.3026C20.6559 12.7843 19.9393 12.4905 19.189 12.4905H18.1001C17.7959 12.4905 17.5082 12.352 17.3184 12.1141C17.1287 11.8763 17.0575 11.565 17.1251 11.2683C17.2147 10.8752 17.2414 10.4748 17.2059 10.078C17.1914 9.91552 17.1663 9.75336 17.1308 9.59226C17.0084 9.03801 16.7626 8.50356 16.401 8.0206C16.0392 7.53726 15.5677 7.11433 15.0087 6.78098C14.6141 6.54566 14.1825 6.35896 13.726 6.22714C13.5361 6.17229 13.3421 6.12699 13.1449 6.09166Z" fill="black"/>
</g>
<defs>
<clipPath id="clip0">
<rect width="24" height="24" fill="white"/>
</clipPath>
</defs>
</svg>

<svg
  width="24"
  height="24"
  viewBox="0 0 24 24"
  xmlns="http://www.w3.org/2000/svg"
>
  <g clip-path="url(#a)">
    <path
      fill-rule="evenodd"
      clip-rule="evenodd"
      d="M18.343.404a1 1 0 0 1 .046 1.125 2.819 2.819 0 0 0 .475 3.55 2.747 2.747 0 0 0 3.53.17 1 1 0 0 1 1.597.928A5.572 5.572 0 0 1 22.842 8.9a5.521 5.521 0 0 1-2.403 1.754 4.824 4.824 0 0 1 2.147 1.224A4.727 4.727 0 0 1 24 15.245c0 1.266-.51 2.477-1.414 3.368A4.84 4.84 0 0 1 19.189 20H6.123c-1.606 0-3.156-.6-4.308-1.686C.66 17.226 0 15.738 0 14.172c0-1.565.66-3.053 1.815-4.14a6.25 6.25 0 0 1 3.55-1.642c.51-1.385 1.525-2.562 2.86-3.348a7.563 7.563 0 0 1 2.541-.926 7.878 7.878 0 0 1 2.406-.044 5.562 5.562 0 0 1 1.378-2.485A5.512 5.512 0 0 1 17.088.082a.989.989 0 0 1 .088-.02l.104-.027a1 1 0 0 1 1.063.369zm-2.378 2.598a3.564 3.564 0 0 0-.863 1.593 7.357 7.357 0 0 1 1.529.867 4.816 4.816 0 0 1-.666-2.46zm2.21 4.062c.395.583.687 1.224.861 1.898a3.52 3.52 0 0 0 2.128-1.17 4.739 4.739 0 0 1-2.99-.728zm-5.03-.972a5.876 5.876 0 0 0-2.037-.006 5.563 5.563 0 0 0-1.869.68c-1.135.668-1.887 1.685-2.141 2.801a1 1 0 0 1-.975.778 4.286 4.286 0 0 0-2.937 1.142C2.42 12.21 2 13.177 2 14.172c0 .996.419 1.963 1.186 2.686A4.286 4.286 0 0 0 6.123 18h13.066a2.84 2.84 0 0 0 1.993-.812A2.727 2.727 0 0 0 22 15.245c0-.725-.293-1.425-.818-1.942a2.84 2.84 0 0 0-1.993-.813H18.1a1 1 0 0 1-.975-1.222 3.817 3.817 0 0 0 .006-1.676 4.098 4.098 0 0 0-.73-1.571 4.808 4.808 0 0 0-1.392-1.24 5.464 5.464 0 0 0-1.283-.554c-.19-.055-.384-.1-.581-.135z"
    />
  </g>
  <defs>
    <clipPath id="a">
      <rect width="24" height="24" />
    </clipPath>
  </defs>
</svg>
